polaris-icons/icons/newicons/ExportMinor.svg

<svg width="20" height="20" viewBox="0 0 20 20" fill="none" xmlns="http://www.w3.org/2000/svg">
<path d="M10.75 12.75C10.75 13.1642 10.4142 13.5 10 13.5C9.58579 13.5 9.25 13.1642 9.25 12.75V4.96299L7.25871 6.8011C6.95435 7.08206 6.47985 7.06308 6.1989 6.75871C5.91795 6.45434 5.93693 5.97985 6.24129 5.6989L9.49129 2.6989C9.77859 2.4337 10.2214 2.4337 10.5087 2.6989L13.7587 5.6989C14.0631 5.97985 14.0821 6.45435 13.8011 6.75871C13.5202 7.06308 13.0457 7.08206 12.7413 6.8011L10.75 4.96299L10.75 12.75Z" fill="black"/>
<path d="M17 13.25C17 12.8358 16.6642 12.5 16.25 12.5C15.8358 12.5 15.5 12.8358 15.5 13.25C15.5 14.4926 14.4926 15.5 13.25 15.5H6.75C5.50736 15.5 4.5 14.4926 4.5 13.25C4.5 12.8358 4.16421 12.5 3.75 12.5C3.33579 12.5 3 12.8358 3 13.25C3 15.3211 4.67893 17 6.75 17H13.25C15.3211 17 17 15.3211 17 13.25Z" fill="black"/>
</svg>

<svg viewBox="0 0 20 20" fill="none" xmlns="http://www.w3.org/2000/svg"><path d="M10.75 12.75a.75.75 0 0 1-1.5 0v-7.787l-1.991 1.838a.75.75 0 1 1-1.018-1.102l3.25-3a.75.75 0 0 1 1.018 0l3.25 3a.75.75 0 1 1-1.018 1.102l-1.991-1.838v7.787Z" fill="#000"/><path d="M17 13.25a.75.75 0 0 0-1.5 0 2.25 2.25 0 0 1-2.25 2.25h-6.5a2.25 2.25 0 0 1-2.25-2.25.75.75 0 0 0-1.5 0 3.75 3.75 0 0 0 3.75 3.75h6.5a3.75 3.75 0 0 0 3.75-3.75Z" fill="#000"/></svg>
